!!!COM:	Japart, Jean
!!!CDT:	~1450//-~1507//
!!!OTL:	Hellas qu'elle est a mon gr&egrave;
!!!AGN:	Song; Chanson
!!!SCT:	Jap3008
!!!SCA:	Jap3008
!!!voices:	4
**kern	**kern	**kern	**kern
*staff4	*staff3	*staff2	*staff1
*Ivox	*Ivox	*Ivox	*Ivox
*I"Bassus	*I"Tenor	*I"Altus	*I"Discantus
*I'B	*I'T	*I'A	*I'D
*tb4	*tb4	*tb4	*tb4
*>[A,B,C]	*>[A,B,C]	*>[A,B,C]	*>[A,B,C]
*>A	*>A	*>A	*>A
*clefF4	*clefG2	*clefG2	*clefG2
*k[]	*k[]	*k[]	*k[]
*M2/1	*M2/1	*M2/1	*M2/1
*met(C|)	*met(C|)	*met(C|)	*met(C|)
!!section: Hellas, qu'elle est a mon gr&egrave;
!!!OMD: Hellas, qu'elle est a mon gr&egrave;
=1-	=1-	=1-	=1-
1.A	0r	1a	0r
.	.	1cc	.
4G	.	.	.
4F	.	.	.
=2	=2	=2	=2
1G	1d	1b	0r
1F	1f	1a	.
=3	=3	=3	=3
1c	1e	2.g	0r
.	.	4a	.
2B	1d	1b	.
2G	.	.	.
=4	=4	=4	=4
2A	2.c	0cc	0r
2.c	.	.	.
.	4d	.	.
.	2e	.	.
4B	.	.	.
2A	[2f	.	.
=5	=5	=5	=5
1G	2f]	1b	0r
.	2e	.	.
2.F	1f	1a	.
4D	.	.	.
=6	=6	=6	=6
2E	0r	2g	0r
2F	.	2a	.
1G	.	2b	.
.	.	[2g	.
=7	=7	=7	=7
1A	0r	2g]	0r
.	.	2f#i	.
2G	.	2.g	.
[2G	.	.	.
.	.	4a	.
=8	=8	=8	=8
4G]	0r	4b	1dd
4A	.	4cc	.
4B	.	2.dd	.
4c	.	.	.
2.d	.	.	1ff
.	.	4cc	.
.	.	[2b	.
4c	.	.	.
=9	=9	=9	=9
2A	1a	4b]	1ee
.	.	4a	.
2c	.	1a	.
1B	1b	.	1dd
.	.	2g#i	.
=10	=10	=10	=10
2.A	2cc	2a	2.cc
.	2.a	1cc	.
4B	.	.	4dd
2c	.	.	2ee
.	4g	.	.
2d	2f	2b	[2ff
=11	=11	=11	=11
1c	1g	1cc	2ff]
.	.	.	2ee
2F	1f	2a	1ff
[2B-i	.	[2dd	.
=12	=12	=12	=12
4B-]	1g	4dd]	0r
4A	.	4cc	.
2G	.	2b	.
1A	1e	1cc	.
=13	=13	=13	=13
1D	1d	1dd	1.ff
1A	2r	2cc	.
.	2c	[2a	2ee
=14	=14	=14	=14
1B	2d	4a]	1dd
.	.	4g	.
.	2B	1g	.
1A	1c	.	2cc
.	.	2f#i	[2cc
=15	=15	=15	=15
0G	0d	0g	2cc]
.	.	.	4b
.	.	.	4a
.	.	.	1b
=16	=16	=16	=16
*M3/1	*M3/1	*M3/1	*M3/1
*met(3)	*met()	*met(3)	*met()
*	*rscale:2/3	*	*rscale:2/3
0A	0.c	0e	0.cc
1A	.	[1a	.
*	*rscale:1	*	*rscale:1
=17	=17	=17	=17
*	*M3/1	*M3/1	*M3/1
*	*met(3)	*met()	*met(3)
!!primary-mensuration: met(3)
0B	0d	1a]	0.r
.	.	0g	.
1B	1d	.	.
=18	=18	=18	=18
0A	0e	[0.a	0.r
1A	1e	.	.
=19	=19	=19	=19
0d	0f	0.a]	0dd
1d	1f	.	1dd
=20	=20	=20	=20
0A	0.c	0cc	0ee
1A	.	1cc	1ee
=21	=21	=21	=21
1.d	1r	1a	0ff
.	1r	2d	.
2c	.	2e	.
1B	1d	2f	1ff
.	.	2g	.
=22	=22	=22	=22
0A	0e	0a	0cc
1c	1e	1g	1cc
=23	=23	=23	=23
1c	1.e	1cc	0ee
0e	.	1b	.
.	2f	.	.
.	1g	1cc	1ee
=24	=24	=24	=24
1d	0a	1dd	1ff
1A	.	1cc	1.ee
[1B	1f	1dd	.
.	.	.	2dd
=25	=25	=25	=25
1B]	1d	1g	1.dd
0A	0e	0a	.
.	.	.	2cc#i
.	.	.	2cc#i
.	.	.	2b
=26	=26	=26	=26
0.Dl	0.dl	0.al	0.ddl
!!xLO:LB:i:g=z
=27||!|:	=27||!|:	=27||!|:	=27||!|:
*>B	*>B	*>B	*>B
*k[]	*k[]	*k[]	*k[]
*M2/1	*M2/1	*M2/1	*M2/1
*met(C|)	*met(C|)	*met(C|)	*met(C|)
!!section: L'autre jour
!!!OMD: L'autre jour
0d	0r	1a	1dd
.	.	1b	1dd
=28	=28	=28	=28
1c	0r	2cc	1ee
.	.	2.a	.
1c	.	.	1ee
.	.	4g	.
.	.	4f	.
.	.	4e	.
=29	=29	=29	=29
1B-	1d	2d	1ff
.	.	1f	.
1B-i	1d	.	1ff
.	.	2g	.
=30	=30	=30	=30
0A	1e	[0a	0cc
.	1e	.	.
=31	=31	=31	=31
1.d	1f	0a_	0r
.	1f	.	.
4c	.	.	.
4B	.	.	.
=32	=32	=32	=32
0A	0c	0a]	1ee
.	.	.	2ee
.	.	.	2ee
=33	=33	=33	=33
1c	1e	1r	1ee
2c	2e	1e	1gg
2c	2e	.	.
=34	=34	=34	=34
1d	1d	1f	2ff
.	.	.	4ee
.	.	.	4dd
1c	1g	1e	4ee
.	.	.	4dd
.	.	.	4cc
.	.	.	4b
=35	=35	=35	=35
2d	2f	2f	2a
2B	2d	2g	1dd
1A	1e	1a	.
.	.	.	2cc#i
=36	=36	=36	=36
0D	0d	0a	0dd
!!xLO:LB:i:g=z
=37:|!	=37:|!	=37:|!	=37:|!
*>C	*>C	*>C	*>C
*k[]	*k[]	*k[]	*k[]
*M3/1	*M3/1	*M3/1	*M3/1
*met(3)	*met(3)	*met(3)	*met(3)
!!section: D'amours faisoit
!!!OMD: D'amours faisoit
0d	0f	0a	0.r
1d	1f	1b	.
=38	=38	=38	=38
0c	0e	1.cc	0.r
.	.	2b	.
1B	1d	1g	.
=39	=39	=39	=39
1A	1c	1a	0.r
0G	1d	0b	.
.	1e	.	.
=40	=40	=40	=40
1.F	0f	0a	0.r
2G	.	.	.
1A	1r	1r	.
=41	=41	=41	=41
0D	0.r	0dd	0ff
1D	.	1dd	1ff
=42	=42	=42	=42
1A	0.r	1.cc	0ee
1c	.	.	.
.	.	2a	.
1G	.	1b	1dd
=43	=43	=43	=43
1A	0.r	1a	1cc
1B	.	0g	1dd
1c	.	.	1ee
=44	=44	=44	=44
1.F	0.r	0f	0ff
4E	.	.	.
4D	.	.	.
1C	.	1e	1r
=45	=45	=45	=45
1D	0f	0d	0.r
2F	.	.	.
2G	.	.	.
1A	1e	1c	.
=46	=46	=46	=46
0D	0d	1d	0ff
.	.	1.a	.
1A	1c	.	1ee
.	.	2g	.
=47	=47	=47	=47
1B	1d	1g	0dd
0A	0e	1.a	.
.	.	.	1cc
.	.	2g	.
=48	=48	=48	=48
1d	1f	1f	1dd
1.c	1g	1e	1.ee
.	[1c	[1g	.
2B	.	.	2dd
=49	=49	=49	=49
1A	1c]	2g]	0cc
.	.	2f	.
0G	0d	1g	.
.	.	1g	1b
=50	=50	=50	=50
0A	0c	0e	0.cc
1A	1c	[1a	.
=51	=51	=51	=51
0B	0d	1a]	0.r
.	.	0g	.
1B	1d	.	.
=52	=52	=52	=52
0A	0e	[0.a	0.r
1A	1e	.	.
=53	=53	=53	=53
0d	0f	0.a]	0dd
1d	1f	.	1dd
=54	=54	=54	=54
0A	0.c	0cc	0ee
1A	.	1cc	1ee
=55	=55	=55	=55
1.d	1r	1a	0ff
.	1r	2d	.
2c	.	2e	.
1B	1d	2f	1ff
.	.	2g	.
=56	=56	=56	=56
0A	1.e	0a	0cc
.	2d	.	.
[1c	2e	1g	1cc
.	2f	.	.
=57	=57	=57	=57
0.c]	1.g	0cc	1.ee
.	2f	.	2dd
.	2e	1cc	2ee
.	2d	.	2ff
=58	=58	=58	=58
1c	1e	1cc	1.gg
0e	2r	1b	.
.	2f	.	2ff
.	1g	1cc	2ee
.	.	.	2dd
=59	=59	=59	=59
1d	1.a	1dd	1ff
1A	.	1cc	1.ee
.	2g	.	.
[1B-i	1f	1dd	.
.	.	.	2dd
=60	=60	=60	=60
1B-]	1d	1g	1.dd
0A	0e	0a	.
.	.	.	2cc#i
.	.	.	2cc#i
.	.	.	2b
=61	=61	=61	=61
0.Dl	0.dl	0.al	0.ddl
==	==	==	==
*-	*-	*-	*-
!!!RDF**kern: l=long note in original notation
!!!RDF**kern: i=editorial accidental
!!!ENC:	Chris Gage 09-11-2013
!!!END:	2013/10/20/
!!!EED:	Jesse Rodin
!!!EEV:	2013/12/19/
!!!ONB:	Translated from MusicXML and edited on 2013/12/19/ by Craig Sapp
!!muse2ps: C^@{COM}^i2I150v85,85,85,100Q16c120
